icons/barricade-line.svg

<svg xmlns="http://www.w3.org/2000/svg" width="24" height="24" fill="none"><g clip-path="url(#a)"><g><path fill="#121212" d="M6.493 19H17.507L16.84 16H7.16L6.493 19ZM19.556 19H21V21H3V19H4.444L7.826 3.783C7.87536 3.56094 7.99897 3.36234 8.1764 3.21999C8.35384 3.07764 8.57452 3.00004 8.802 3H15.198C15.4255 3.00004 15.6462 3.07764 15.8236 3.21999C16.001 3.36234 16.1246 3.56094 16.174 3.783L19.556 19ZM7.604 14H16.396L15.506 10H8.494L7.605 14H7.604ZM8.938 8H15.062L14.396 5H9.604L8.938 8Z"/></g></g><defs><clipPath id="a"><rect width="24" height="24" fill="white"/></clipPath></defs></svg>

<svg width="24" height="24" fill="none" xmlns="http://www.w3.org/2000/svg"><g clip-path="url(#a)"><path d="M6.493 19h11.014l-.667-3H7.16l-.667 3Zm13.063 0H21v2H3v-2h1.444L7.826 3.783A1 1 0 0 1 8.802 3h6.396a1 1 0 0 1 .976.783L19.556 19ZM7.604 14h8.792l-.89-4H8.494l-.889 4h-.001Zm1.334-6h6.124l-.666-3H9.604l-.666 3Z" /></g><defs><clipPath id="a"><path fill="#fff" d="M0 0h24v24H0z"/></clipPath></defs></svg>
